prod/images/flags-1x1/bv.svg

<svg viewBox="0 0 512 512" xmlns="http://www.w3.org/2000/svg" xmlns:xlink="http://www.w3.org/1999/xlink"><clipPath id="a"><path d="m0 0h512v512h-512z"/></clipPath><g clip-path="url(#a)" fill-rule="evenodd" stroke-width="1pt"><path d="m-68 0h699.7v512h-699.7z" fill="#fff"/><path d="m-93-77.8h218.7v276.2h-218.7zm342.4 77.2h381v199h-381zm-317 320.6h190.4v190.3h-190.3zm319.6 2.1h378.3v188.2h-378.3z" fill="#d72828"/><g fill="#003897"><path d="m156.7-25.4h64.3v535.7h-64.5z"/><path d="m-67.5 224.8h697.8v63.5h-697.8z"/></g></g></svg>

<svg viewBox="0 0 512 512" xmlns="http://www.w3.org/2000/svg"><clipPath id="a"><path d="M0 0h512v512H0z"/></clipPath><g clip-path="url(#a)" fill-rule="evenodd" stroke-width="1pt"><path d="M-68 0h699.7v512H-68z" fill="#fff"/><path d="M-93-77.8h218.7v276.2H-93zM249.4-.6h381v199h-381zM-67.6 320h190.4v190.3H-67.5zm319.6 2.1h378.3v188.2H252z" fill="#d72828"/><g fill="#003897"><path d="M156.7-25.4H221v535.7h-64.5z"/><path d="M-67.5 224.8h697.8v63.5H-67.5z"/></g></g></svg>
